src/ui/filter.svg

<?xml version="1.0" encoding="UTF-8"?><svg xmlns="http://www.w3.org/2000/svg" viewBox="0 0 32 32"><defs><style>.uuid-30338bcd-7c19-4220-b2b5-12a185ea7da3{fill:none;}.uuid-30338bcd-7c19-4220-b2b5-12a185ea7da3,.uuid-8ea33599-1476-4676-8001-bce3310da564{stroke-width:0px;}.uuid-8ea33599-1476-4676-8001-bce3310da564{fill:#151515;}</style></defs><g id="uuid-7308c2a4-fb56-4bcf-ab8f-05131d4cd98f"><rect class="uuid-30338bcd-7c19-4220-b2b5-12a185ea7da3" width="32" height="32"/></g><g id="uuid-b9afaedd-73f3-4716-b8ec-ad357ec0e163"><path class="uuid-8ea33599-1476-4676-8001-bce3310da564" d="M29.5,1H2.5c-.8271,0-1.5.6729-1.5,1.5v4.5c0,.2651.1055.5195.293.707l10.707,10.707v11.9683c0,.4546.2026.8794.5557,1.1655.2705.2192.6021.335.9424.335.104,0,.2095-.0107.314-.0332l5-1.0625h.001c.6875-.147,1.187-.7642,1.187-1.4673v-10.9058l10.707-10.707c.1875-.1875.293-.4419.293-.707V2.5c0-.8271-.6729-1.5-1.5-1.5ZM29,6.5859l-10.707,10.707c-.1875.1875-.293.4419-.293.707v10.915l-4,.8501v-11.7651c0-.2651-.1055-.5195-.293-.707L3,6.5859v-3.5859h26v3.5859Z"/></g></svg>

<svg xmlns="http://www.w3.org/2000/svg" viewBox="0 0 32 32">
  <path d="M0 0h32v32H0z" fill="none"/>
  <path d="M29.5 1h-27C1.673 1 1 1.673 1 2.5V7a1 1 0 0 0 .293.707L12 18.414v11.968c0 .455.203.88.556 1.166a1.493 1.493 0 0 0 1.256.302l5-1.063h.001A1.509 1.509 0 0 0 20 29.32V18.414L30.707 7.707A1 1 0 0 0 31 7V2.5c0-.827-.673-1.5-1.5-1.5ZM29 6.586 18.293 17.293A1 1 0 0 0 18 18v10.915l-4 .85V18a1 1 0 0 0-.293-.707L3 6.586V3h26v3.586Z" fill="#151515"/>
</svg>
